X:1
T:Title
L:1/8
M:4/4
K:G
V:1 treble nm="Grand Piano"
V:1
 z4 z[Q:1/4=100] AAG | BAAG G>F EF | ED D2- DAAG | BAAG G>F EF | ED D2- DGGF | AGGF AGGF | %6
 AG A2 D G2 F | ED D4 z2 |[M:3/8] AAG |[M:4/4] BAAG G>F EF | ED D2- DAAG | BAAG G>F EF | %12
 ED D2- DGGF | AGGF AGGF | AG A2 D G2 F |[M:8/4] ED .D6 z8 |] %16

